web/ui/src/components/theme/button/svgs/next.svg

<svg height="16" viewBox="0 0 16 16" width="16" xmlns="http://www.w3.org/2000/svg"><g fill="none"><path d="m0 0h16v16h-16z" fill="#000" opacity="0"/><path d="m8 15.5c-4.142 0-7.5-3.358-7.5-7.5s3.358-7.5 7.5-7.5 7.5 3.358 7.5 7.5-3.358 7.5-7.5 7.5zm0-1c3.59 0 6.5-2.91 6.5-6.5s-2.91-6.5-6.5-6.5-6.5 2.91-6.5 6.5 2.91 6.5 6.5 6.5zm2.75-7c.2761424 0 .5.22385763.5.5s-.2238576.5-.5.5h-6.5c-.27614237 0-.5-.22385763-.5-.5s.22385763-.5.5-.5zm.298.5-2.365-2.6685c-.12499398-.13265268-.16790317-.32281172-.11198658-.49628668.05591659-.17347497.20179944-.30278023.38073247-.33746742.17893302-.03468719.36256579.03073958.47925411.1707541l2.6595 3c.1675871.18922916.1675871.47377084 0 .663l-2.66 3c-.11668832.1400145-.30032109.2054413-.47925411.1707541-.17893303-.0346872-.32481588-.1639924-.38073247-.3374674s-.0130074-.363634.11198658-.4962867z" fill="#fff"/></g></svg>

<?xml version="1.0" encoding="UTF-8"?>
<svg width="16px" height="16px" viewBox="0 0 16 16" version="1.1" xmlns="http://www.w3.org/2000/svg" xmlns:xlink="http://www.w3.org/1999/xlink">
    <title>下一步备份</title>
    <g id="页面-1" stroke="none" stroke-width="1" fill="none" fill-rule="evenodd">
        <g id="建木自动化-导入" transform="translate(-1672.000000, -89.000000)" fill-rule="nonzero">
            <g id="下一步备份" transform="translate(1672.000000, 89.000000)">
                <rect id="矩形" fill="#000000" opacity="0" x="0" y="0" width="16" height="16"></rect>
                <path d="M8,15.5 C3.858,15.5 0.5,12.142 0.5,8 C0.5,3.858 3.858,0.5 8,0.5 C12.142,0.5 15.5,3.858 15.5,8 C15.5,12.142 12.142,15.5 8,15.5 Z M8,14.5 C11.59,14.5 14.5,11.59 14.5,8 C14.5,4.41 11.59,1.5 8,1.5 C4.41,1.5 1.5,4.41 1.5,8 C1.5,11.59 4.41,14.5 8,14.5 Z M10.75,7.5 C11.0261424,7.5 11.25,7.72385763 11.25,8 C11.25,8.27614237 11.0261424,8.5 10.75,8.5 L4.25,8.5 C3.97385763,8.5 3.75,8.27614237 3.75,8 C3.75,7.72385763 3.97385763,7.5 4.25,7.5 L10.75,7.5 Z M11.048,8 L8.683,5.3315 C8.55800602,5.19884732 8.51509683,5.00868828 8.57101342,4.83521332 C8.62693001,4.66173835 8.77281286,4.53243309 8.95174589,4.4977459 C9.13067891,4.46305871 9.31431168,4.52848548 9.431,4.6685 L12.0905,7.6685 C12.2580871,7.85772916 12.2580871,8.14227084 12.0905,8.3315 L9.4305,11.3315 C9.31381168,11.4715145 9.13017891,11.5369413 8.95124589,11.5022541 C8.77231286,11.4675669 8.62643001,11.3382617 8.57051342,11.1647867 C8.51459683,10.9913117 8.55750602,10.8011527 8.6825,10.6685 L11.048,8 Z" id="形状" fill="#FFFFFF"></path>
            </g>
        </g>
    </g>
</svg>
